X: 1602
T: Anna Foxe
R: hornpipe
M: 4/4
K: Dmajor
de|:f2a2 d2cA|BdcB A2Bc|d4 e2de|f2af e2dc|cBcd A2cd|
e2ag gfed|1 B2gf e2f^g|a4 baba:|2 B2g2 fedc|d6 c2||
|:B2cd- dcBA|G2fe e2cA|FAce GBdf|Bdgf fedc|
dcdf A2gf|e2ag gfed|B2g2 fedc|1 d6 c2:|2 d6||

